dist/img/icons/figma.svg

<svg width="59" height="90" viewBox="0 0 59 90" fill="none" xmlns="http://www.w3.org/2000/svg">
<g clip-path="url(#clip0_167_597)">
<path d="M15.0513 89.6612C23.0898 89.6612 29.61 83.0214 29.61 74.8355V60.0098H15.0513C7.0128 60.0098 0.492676 66.6495 0.492676 74.8355C0.492676 83.0214 7.0128 89.6612 15.0513 89.6612Z" fill="#0ACF83"/>
<path d="M0.492676 45.1655C0.492676 36.9796 7.0128 30.3398 15.0513 30.3398H29.61V60.0094H15.0513C7.0128 59.9912 0.492676 53.3515 0.492676 45.1655Z" fill="#A259FF"/>
<path d="M0.492676 15.4956C0.492676 7.30965 7.0128 0.669922 15.0513 0.669922H29.61V30.3395H15.0513C7.0128 30.3395 0.492676 23.6816 0.492676 15.4956Z" fill="#F24E1E"/>
<path d="M29.6279 0.669922H44.1866C52.2251 0.669922 58.7452 7.30965 58.7452 15.4956C58.7452 23.6816 52.2251 30.3213 44.1866 30.3213H29.6279V0.669922Z" fill="#FF7262"/>
<path d="M58.7452 45.1655C58.7452 53.3515 52.2251 59.9913 44.1866 59.9913C36.1481 59.9913 29.6279 53.3515 29.6279 45.1655C29.6279 36.9796 36.1481 30.3398 44.1866 30.3398C52.2251 30.3398 58.7452 36.9796 58.7452 45.1655Z" fill="#1ABCFE"/>
</g>
<defs>
<clipPath id="clip0_167_597">
<rect width="58.2524" height="88.9906" fill="white" transform="translate(0.492676 0.669922)"/>
</clipPath>
</defs>
</svg>

<svg width="59" height="90" fill="none" xmlns="http://www.w3.org/2000/svg"><g clip-path="url(#clip0_167_597)"><path d="M15.051 89.661c8.039 0 14.559-6.64 14.559-14.826V60.01H15.051C7.013 60.01.493 66.65.493 74.835c0 8.186 6.52 14.826 14.558 14.826z" fill="#0ACF83"/><path d="M.493 45.166c0-8.186 6.52-14.826 14.558-14.826H29.61v29.67H15.051C7.013 59.99.493 53.351.493 45.165z" fill="#A259FF"/><path d="M.493 15.496C.493 7.31 7.013.67 15.05.67h14.56v29.67H15.051C7.013 30.34.493 23.681.493 15.496z" fill="#F24E1E"/><path d="M29.628.67h14.559c8.038 0 14.558 6.64 14.558 14.826S52.225 30.32 44.187 30.32h-14.56V.67z" fill="#FF7262"/><path d="M58.745 45.166c0 8.186-6.52 14.825-14.558 14.825-8.039 0-14.56-6.64-14.56-14.825 0-8.186 6.521-14.826 14.56-14.826 8.038 0 14.558 6.64 14.558 14.826z" fill="#1ABCFE"/></g><defs><clipPath id="clip0_167_597"><path fill="#fff" transform="translate(.493 .67)" d="M0 0h58.252v88.991H0z"/></clipPath></defs></svg>
